; generated by Slic3r 1.2.9 on 2016-01-18 at 14:06:33

; external perimeters extrusion width = 0.40mm
; perimeters extrusion width = 0.67mm
; infill extrusion width = 0.67mm
; solid infill extrusion width = 0.67mm
; top infill extrusion width = 0.67mm
; support material extrusion width = 0.40mm

M107
M104 S210 ; set temperature
M106 S255 ; Fan ON
G28 ; home all axes
G29 ; Auto probe
G1 Z5 F5000 ; lift nozzle

M109 S210 ; wait for temperature to be reached
G21 ; set units to millimeters
G90 ; use absolute coordinates
M82 ; use absolute distances for extrusion
G92 E0
G1 Z0.350 F7800.000
G1 E-1.00000 F2400.00000
G92 E0
G1 Z1.350 F7800.000
G1 X5.255 Y13.102 F7800.000
G1 Z0.350 F7800.000
G1 E1.00000 F2400.00000
G1 X4.515 Y13.380 E1.06107 F1800.000
G1 X3.795 Y13.602 E1.11936
G1 X3.395 Y13.708 E1.15130
G1 X2.251 Y13.941 E1.24151
G1 X1.495 Y14.042 E1.30052
G1 X0.339 Y14.118 E1.39000
G1 X-0.828 Y14.097 E1.48021
G1 X-1.989 Y13.981 E1.57042
G1 X-2.397 Y13.917 E1.60236
G1 X-3.137 Y13.769 E1.66065
G1 X-4.263 Y13.463 E1.75086
G1 X-5.360 Y13.065 E1.84106
G1 X-5.740 Y12.902 E1.87301
G1 X-6.786 Y12.384 E1.96322
G1 X-7.438 Y12.004 E2.02151
G1 X-8.403 Y11.349 E2.11172
G1 X-9.320 Y10.610 E2.20271
G1 X-10.157 Y9.811 E2.29214
G1 X-10.440 Y9.510 E2.32408
G1 X-11.183 Y8.623 E2.41349
G1 X-11.633 Y8.006 E2.47257
G1 X-11.863 Y7.661 E2.50455
G1 X-12.455 Y6.656 E2.59472
G1 X-12.792 Y5.982 E2.65301
G1 X-13.243 Y4.905 E2.74322
G1 X-13.380 Y4.515 E2.77516
G1 X-13.705 Y3.405 E2.86457
G1 X-13.941 Y2.250 E2.95566
G1 X-14.079 Y1.092 E3.04578
G1 X-14.118 Y0.339 E3.10408
G1 X-14.121 Y-0.074 E3.13602
G1 X-14.068 Y-1.230 E3.22547
G1 X-13.917 Y-2.397 E3.31643
G1 X-13.769 Y-3.137 E3.37472
G1 X-13.463 Y-4.263 E3.46493
G1 X-13.332 Y-4.656 E3.49693
G1 X-12.906 Y-5.731 E3.58630
G1 X-12.384 Y-6.786 E3.67731
G1 X-11.782 Y-7.786 E3.76750
G1 X-11.349 Y-8.403 E3.82579
G1 X-11.098 Y-8.732 E3.85773
G1 X-10.339 Y-9.619 E3.94793
G1 X-9.811 Y-10.157 E4.00622
G1 X-8.939 Y-10.932 E4.09643
G1 X-8.006 Y-11.633 E4.18664
G1 X-7.662 Y-11.862 E4.21858
G1 X-6.656 Y-12.455 E4.30879
G1 X-5.605 Y-12.962 E4.39900
G1 X-4.905 Y-13.243 E4.45729
G1 X-3.795 Y-13.602 E4.54745
G1 X-2.658 Y-13.869 E4.63771
G1 X-1.505 Y-14.041 E4.72784
G1 X-1.092 Y-14.079 E4.75986
G1 X-0.339 Y-14.118 E4.81815
G1 X0.827 Y-14.097 E4.90833
G1 X1.989 Y-13.981 E4.99856 F1800.000
G1 X3.137 Y-13.769 E5.08878
G1 X4.262 Y-13.463 E5.17892
G1 X5.360 Y-13.065 E5.26916
G1 X6.421 Y-12.578 E5.35940
G1 X7.438 Y-12.004 E5.44961
G1 X8.403 Y-11.349 E5.53982
G1 X9.312 Y-10.617 E5.63003
G1 X10.157 Y-9.811 E5.72024
G1 X10.932 Y-8.939 E5.81045
G1 X11.633 Y-8.006 E5.90066
G1 X11.862 Y-7.662 E5.93260
G1 X12.455 Y-6.656 E6.02281
G1 X12.962 Y-5.605 E6.11302
G1 X13.381 Y-4.514 E6.20330
G1 X13.708 Y-3.394 E6.29350
G1 X13.941 Y-2.251 E6.38366
G1 X14.079 Y-1.092 E6.47386
G1 X14.121 Y0.074 E6.56407
G1 X14.067 Y1.240 E6.65432
G1 X13.917 Y2.398 E6.74457
G1 X13.671 Y3.538 E6.83470
G1 X13.332 Y4.655 E6.92491
G1 X12.902 Y5.741 E7.01514
G1 X12.384 Y6.786 E7.10535
G1 X11.782 Y7.786 E7.19554
G1 X11.098 Y8.732 E7.28575
G1 X10.339 Y9.619 E7.37596
G1 X9.510 Y10.440 E7.46617
G1 X8.615 Y11.189 E7.55638
G1 X7.662 Y11.862 E7.64659
G1 X6.656 Y12.455 E7.73680
G1 X5.982 Y12.792 E7.79508
G1 X5.311 Y13.080 E7.85152
G1 X5.022 Y12.523 F7800.000
G1 X4.307 Y12.791 E7.91060 F1800.000
G1 X3.636 Y12.998 E7.96489
G1 X3.236 Y13.103 E7.99683
G1 X2.143 Y13.326 E8.08305
G1 X1.437 Y13.420 E8.13807
G1 X0.333 Y13.493 E8.22356
G1 X-0.782 Y13.474 E8.30978
G1 X-1.194 Y13.444 E8.34172
G1 X-2.300 Y13.299 E8.42794
G1 X-2.999 Y13.159 E8.48303
G1 X-4.066 Y12.870 E8.56845
G1 X-5.115 Y12.490 E8.65466
G1 X-5.495 Y12.328 E8.68661
G1 X-6.494 Y11.832 E8.77283
G1 X-7.449 Y11.255 E8.85905
G1 X-8.024 Y10.852 E8.91334
G1 X-8.893 Y10.153 E8.99955
G1 X-9.200 Y9.876 E9.03150
G1 X-9.984 Y9.082 E9.11772
G1 X-10.443 Y8.551 E9.17201
G1 X-11.113 Y7.659 E9.25823
G1 X-11.343 Y7.315 E9.29021
G1 X-11.908 Y6.354 E9.37639
G1 X-12.222 Y5.725 E9.43069
G1 X-12.653 Y4.696 E9.51690
G1 X-12.791 Y4.307 E9.54884
G1 X-13.101 Y3.246 E9.63427
G1 X-13.326 Y2.142 E9.72135
G1 X-13.457 Y1.035 E9.80750
G1 X-13.493 Y0.333 E9.86180
G1 X-13.497 Y-0.080 E9.89374
G1 X-13.445 Y-1.184 E9.97920
G1 X-13.299 Y-2.300 E10.06617
G1 X-13.162 Y-2.989 E10.12047
G1 X-12.870 Y-4.066 E10.20668
G1 X-12.739 Y-4.459 E10.23868
G1 X-12.332 Y-5.485 E10.32404
G1 X-11.832 Y-6.494 E10.41108
G1 X-11.261 Y-7.440 E10.49648
G1 X-10.852 Y-8.024 E10.55157
G1 X-10.602 Y-8.353 E10.58351
G1 X-9.876 Y-9.200 E10.66973
G1 X-9.384 Y-9.701 E10.72403
G1 X-8.551 Y-10.443 E10.81025
G1 X-7.659 Y-11.113 E10.89647
G1 X-7.315 Y-11.343 E10.92841
G1 X-6.354 Y-11.908 E11.01462
G1 X-5.348 Y-12.392 E11.10084
G1 X-4.696 Y-12.653 E11.15514
G1 X-3.636 Y-12.998 E11.24131
G1 X-2.550 Y-13.254 E11.32757
G1 X-1.447 Y-13.419 E11.41372
G1 X-1.035 Y-13.457 E11.44573
G1 X-0.333 Y-13.493 E11.50003
G1 X0.782 Y-13.474 E11.58622
G1 X1.892 Y-13.364 E11.67246 F1800.000
G1 X2.989 Y-13.162 E11.75868
G1 X4.065 Y-12.870 E11.84484
G1 X5.114 Y-12.490 E11.93109
G1 X6.129 Y-12.025 E12.01734
G1 X7.101 Y-11.478 E12.10356
G1 X8.024 Y-10.852 E12.18977
G1 X8.893 Y-10.153 E12.27599
G1 X9.701 Y-9.384 E12.36221
G1 X10.443 Y-8.551 E12.44843
G1 X11.113 Y-7.659 E12.53465
G1 X11.708 Y-6.715 E12.62087
G1 X11.908 Y-6.353 E12.65281
G1 X12.392 Y-5.348 E12.73902
G1 X12.792 Y-4.306 E12.82530
G1 X13.103 Y-3.235 E12.91152
G1 X13.326 Y-2.143 E12.99769
G1 X13.457 Y-1.035 E13.08390
G1 X13.497 Y0.080 E13.17011
G1 X13.444 Y1.195 E13.25637
G1 X13.299 Y2.301 E13.34263
G1 X13.064 Y3.391 E13.42877
G1 X12.739 Y4.458 E13.51499
G1 X12.328 Y5.495 E13.60123
G1 X11.832 Y6.494 E13.68745
G1 X11.255 Y7.449 E13.77364
G1 X10.602 Y8.353 E13.85987
G1 X9.876 Y9.200 E13.94608
G1 X9.082 Y9.984 E14.03230
G1 X8.227 Y10.700 E14.11852
G1 X7.315 Y11.343 E14.20474
G1 X6.353 Y11.908 E14.29095
G1 X5.725 Y12.222 E14.34525
G1 X5.078 Y12.500 E14.39969
G1 X4.790 Y11.943 F7800.000
G1 X4.098 Y12.202 E14.45677 F1800.000
G1 X3.476 Y12.394 E14.50707
G1 X3.077 Y12.499 E14.53901
G1 X2.034 Y12.710 E14.62124
G1 X1.380 Y12.798 E14.67228
G1 X0.328 Y12.868 E14.75377
G1 X-0.736 Y12.851 E14.83600
G1 X-1.795 Y12.746 E14.91822
G1 X-2.203 Y12.682 E14.95016
G1 X-2.841 Y12.555 E15.00046
G1 X-3.868 Y12.277 E15.08269
G1 X-4.869 Y11.916 E15.16492
G1 X-5.249 Y11.753 E15.19686
G1 X-6.202 Y11.280 E15.27909
G1 X-7.112 Y10.729 E15.36132
G1 X-7.645 Y10.356 E15.41162
G1 X-8.474 Y9.689 E15.49384
G1 X-8.781 Y9.412 E15.52579
G1 X-9.528 Y8.655 E15.60801
G1 X-10.204 Y7.846 E15.68944
G1 X-10.593 Y7.312 E15.74054
G1 X-10.823 Y6.968 E15.77252
G1 X-11.361 Y6.051 E15.85471
G1 X-11.652 Y5.469 E15.90502
G1 X-12.064 Y4.488 E15.98724
G1 X-12.202 Y4.098 E16.01918
G1 X-12.496 Y3.087 E16.10061
G1 X-12.710 Y2.033 E16.18370
G1 X-12.835 Y0.978 E16.26586
G1 X-12.868 Y0.328 E16.31617
G1 X-12.872 Y-0.086 E16.34811
G1 X-12.821 Y-1.138 E16.42953
G1 X-12.682 Y-2.203 E16.51256
G1 X-12.555 Y-2.841 E16.56286
G1 X-12.277 Y-3.868 E16.64509
G1 X-12.146 Y-4.261 E16.67708
G1 X-11.757 Y-5.239 E16.75846
G1 X-11.279 Y-6.202 E16.84150
G1 X-10.735 Y-7.103 E16.92291
G1 X-10.356 Y-7.645 E16.97401
G1 X-10.105 Y-7.974 E17.00595
G1 X-9.412 Y-8.781 E17.08818
G1 X-8.655 Y-9.528 E17.17041
G1 X-8.162 Y-9.953 E17.22071
G1 X-7.312 Y-10.593 E17.30294
G1 X-6.968 Y-10.823 E17.33488
G1 X-6.051 Y-11.361 E17.41710
G1 X-5.092 Y-11.822 E17.49933
G1 X-4.488 Y-12.064 E17.54963
G1 X-3.477 Y-12.394 E17.63182
G1 X-2.441 Y-12.638 E17.71409
G1 X-1.390 Y-12.797 E17.79625
G1 X-0.978 Y-12.835 E17.82826
G1 X-0.328 Y-12.868 E17.87856
G1 X0.736 Y-12.851 E17.96076
G1 X1.795 Y-12.746 E18.04301 F1800.000
G1 X2.841 Y-12.555 E18.12524
G1 X3.868 Y-12.277 E18.20741
G1 X4.869 Y-11.916 E18.28967
G1 X5.836 Y-11.473 E18.37192
G1 X6.764 Y-10.952 E18.45415
G1 X7.645 Y-10.356 E18.53638
G1 X8.474 Y-9.689 E18.61860
G1 X9.245 Y-8.956 E18.70083
G1 X9.953 Y-8.162 E18.78306
G1 X10.593 Y-7.312 E18.86528
G1 X10.823 Y-6.968 E18.89722
G1 X11.361 Y-6.051 E18.97945
G1 X11.822 Y-5.092 E19.06168
G1 X12.202 Y-4.098 E19.14396
G1 X12.499 Y-3.076 E19.22619
G1 X12.710 Y-2.034 E19.30837
G1 X12.835 Y-0.978 E19.39059
G1 X12.872 Y0.086 E19.47281
G1 X12.821 Y1.149 E19.55507
G1 X12.682 Y2.204 E19.63734
G1 X12.457 Y3.243 E19.71950
G1 X12.147 Y4.260 E19.80172
G1 X11.753 Y5.249 E19.88397
G1 X11.279 Y6.202 E19.96620
G1 X10.729 Y7.112 E20.04840
G1 X10.105 Y7.974 E20.13064
G1 X9.412 Y8.781 E20.21286
G1 X8.655 Y9.528 E20.29509
G1 X7.838 Y10.210 E20.37731
G1 X6.968 Y10.823 E20.45954
G1 X6.051 Y11.361 E20.54177
G1 X5.469 Y11.652 E20.59207
G1 X4.846 Y11.921 E20.64451
G1 X4.558 Y11.364 F7800.000
G1 X3.890 Y11.613 E20.69960 F1800.000
G1 X3.317 Y11.789 E20.74591
G1 X2.918 Y11.895 E20.77785
G1 X1.925 Y12.095 E20.85609
G1 X1.322 Y12.176 E20.90314
G1 X0.322 Y12.243 E20.98063
G1 X-0.690 Y12.228 E21.05887
G1 X-1.103 Y12.198 E21.09081
G1 X-2.106 Y12.065 E21.16904
G1 X-2.694 Y11.947 E21.21535
G1 X-3.671 Y11.684 E21.29359
G1 X-4.623 Y11.341 E21.37182
G1 X-5.003 Y11.179 E21.40377
G1 X-5.909 Y10.727 E21.48200
G1 X-6.427 Y10.425 E21.52831
G1 X-7.266 Y9.859 E21.60655
G1 X-8.055 Y9.225 E21.68478
G1 X-8.362 Y8.948 E21.71673
G1 X-8.790 Y8.529 E21.76304
G1 X-9.464 Y7.774 E21.84127
G1 X-10.074 Y6.966 E21.91951
G1 X-10.303 Y6.621 E21.95148
G1 X-10.814 Y5.748 E22.02969
G1 X-11.083 Y5.213 E22.07600
G1 X-11.475 Y4.280 E22.15423
G1 X-11.613 Y3.890 E22.18617
G1 X-11.892 Y2.928 E22.26361
G1 X-12.095 Y1.925 E22.34271
G1 X-12.213 Y0.920 E22.42088
G1 X-12.243 Y0.322 E22.46719
G1 X-12.247 Y-0.092 E22.49914
G1 X-12.198 Y-1.092 E22.57657
G1 X-12.065 Y-2.106 E22.65560
G1 X-11.947 Y-2.694 E22.70192
G1 X-11.684 Y-3.671 E22.78015
G1 X-11.553 Y-4.064 E22.81214
G1 X-11.183 Y-4.994 E22.88954
G1 X-10.727 Y-5.910 E22.96858
G1 X-10.203 Y-6.775 E23.04680
G1 X-9.859 Y-7.266 E23.09311
G1 X-9.225 Y-8.055 E23.17134
G1 X-8.948 Y-8.362 E23.20328
G1 X-8.227 Y-9.072 E23.28152
G1 X-7.774 Y-9.464 E23.32783
G1 X-6.966 Y-10.074 E23.40607
G1 X-6.622 Y-10.303 E23.43801
G1 X-5.748 Y-10.814 E23.51624
G1 X-4.836 Y-11.252 E23.59448
G1 X-4.280 Y-11.475 E23.64079
G1 X-3.318 Y-11.789 E23.71898
G1 X-2.332 Y-12.023 E23.79726
G1 X-1.332 Y-12.175 E23.87544
G1 X-0.920 Y-12.213 E23.90744
G1 X-0.322 Y-12.243 E23.95375
G1 X0.690 Y-12.228 E24.03196
G1 X1.698 Y-12.129 E24.11022 F1800.000
G1 X2.694 Y-11.947 E24.18846
G1 X3.670 Y-11.684 E24.26664
G1 X4.623 Y-11.341 E24.34490
G1 X5.544 Y-10.921 E24.42317
G1 X6.427 Y-10.425 E24.50140
G1 X7.266 Y-9.859 E24.57964
G1 X8.055 Y-9.225 E24.65787
G1 X8.790 Y-8.529 E24.73611
G1 X9.464 Y-7.774 E24.81434
G1 X9.721 Y-7.450 E24.84629
G1 X10.303 Y-6.622 E24.92452
G1 X10.814 Y-5.748 E25.00276
G1 X11.252 Y-4.836 E25.08099
G1 X11.613 Y-3.889 E25.15928
G1 X11.895 Y-2.917 E25.23751
G1 X12.095 Y-1.925 E25.31571
G1 X12.213 Y-0.920 E25.39393
G1 X12.247 Y0.092 E25.47217
G1 X12.197 Y1.103 E25.55043
G1 X12.065 Y2.107 E25.62870
G1 X11.850 Y3.095 E25.70688
G1 X11.554 Y4.063 E25.78511
G1 X11.179 Y5.004 E25.86337
G1 X10.727 Y5.910 E25.94160
G1 X10.203 Y6.775 E26.01982
G1 X9.608 Y7.595 E26.09806
G1 X8.948 Y8.362 E26.17629
G1 X8.227 Y9.072 E26.25453
G1 X7.450 Y9.721 E26.33276
G1 X6.622 Y10.303 E26.41100
G1 X5.748 Y10.814 E26.48924
G1 X5.213 Y11.083 E26.53555
G1 X4.613 Y11.341 E26.58600
G1 X4.325 Y10.784 F7800.000
G1 X3.681 Y11.024 E26.63909 F1800.000
G1 X3.158 Y11.185 E26.68140
G1 X2.759 Y11.290 E26.71334
G1 X1.817 Y11.480 E26.78759
G1 X1.265 Y11.553 E26.83065
G1 X0.316 Y11.618 E26.90415
G1 X-0.645 Y11.605 E26.97840
G1 X-1.057 Y11.574 E27.01034
G1 X-2.009 Y11.448 E27.08458
G1 X-2.948 Y11.242 E27.15883
G1 X-3.484 Y11.088 E27.20194
G1 X-4.378 Y10.766 E27.27539
G1 X-4.758 Y10.604 E27.30733
G1 X-5.617 Y10.175 E27.38158
G1 X-6.438 Y9.676 E27.45582
G1 X-6.887 Y9.362 E27.49814
G1 X-7.636 Y8.762 E27.57238
G1 X-7.943 Y8.485 E27.60432
G1 X-8.617 Y7.800 E27.67857
G1 X-9.225 Y7.070 E27.75202
G1 X-9.554 Y6.619 E27.79513
G1 X-9.783 Y6.275 E27.82710
G1 X-10.268 Y5.446 E27.90132
G1 X-10.513 Y4.956 E27.94364
G1 X-10.886 Y4.071 E28.01788
G1 X-11.024 Y3.682 E28.04982
G1 X-11.288 Y2.769 E28.12327
G1 X-11.480 Y1.816 E28.19837
G1 X-11.590 Y0.863 E28.27255
G1 X-11.618 Y0.316 E28.31488
G1 X-11.622 Y-0.097 E28.34682
G1 X-11.575 Y-1.047 E28.42026
G1 X-11.448 Y-2.009 E28.49530
G1 X-11.340 Y-2.546 E28.53762
G1 X-11.091 Y-3.474 E28.61187
G1 X-10.961 Y-3.866 E28.64385
G1 X-10.608 Y-4.748 E28.71725
G1 X-10.175 Y-5.617 E28.79231
G1 X-9.682 Y-6.430 E28.86574
G1 X-9.362 Y-6.887 E28.90886
G1 X-9.112 Y-7.215 E28.94080
G1 X-8.485 Y-7.943 E29.01504
G1 X-7.800 Y-8.617 E29.08929
G1 X-7.385 Y-8.974 E29.13161
G1 X-6.619 Y-9.554 E29.20586
G1 X-6.275 Y-9.783 E29.23780
G1 X-5.446 Y-10.268 E29.31204
G1 X-4.579 Y-10.682 E29.38628
G1 X-4.071 Y-10.886 E29.42860
G1 X-3.159 Y-11.185 E29.50281
G1 X-2.224 Y-11.408 E29.57709
G1 X-1.275 Y-11.552 E29.65128
G1 X-0.863 Y-11.590 E29.68328
G1 X-0.316 Y-11.618 E29.72560
G1 X0.644 Y-11.605 E29.79982
G1 X1.601 Y-11.512 E29.87409 F1800.000
G1 X2.546 Y-11.340 E29.94833
G1 X3.473 Y-11.091 E30.02253
G1 X4.377 Y-10.767 E30.09680
G1 X5.252 Y-10.368 E30.17107
G1 X6.090 Y-9.899 E30.24531
G1 X6.887 Y-9.362 E30.31955
G1 X7.636 Y-8.762 E30.39379
G1 X8.334 Y-8.101 E30.46804
G1 X8.974 Y-7.385 E30.54229
G1 X9.231 Y-7.062 E30.57423
G1 X9.783 Y-6.275 E30.64847
G1 X10.268 Y-5.446 E30.72272
G1 X10.682 Y-4.579 E30.79696
G1 X11.024 Y-3.681 E30.87125
G1 X11.290 Y-2.758 E30.94550
G1 X11.480 Y-1.817 E31.01970
G1 X11.590 Y-0.863 E31.09394
G1 X11.622 Y0.097 E31.16818
G1 X11.574 Y1.057 E31.24245
G1 X11.447 Y2.010 E31.31673
G1 X11.242 Y2.947 E31.39092
G1 X10.961 Y3.866 E31.46516
G1 X10.604 Y4.758 E31.53942
G1 X10.175 Y5.617 E31.61367
G1 X9.676 Y6.438 E31.68790
G1 X9.112 Y7.215 E31.76215
G1 X8.485 Y7.943 E31.83639
G1 X7.800 Y8.617 E31.91063
G1 X7.062 Y9.231 E31.98488
G1 X6.275 Y9.783 E32.05912
G1 X5.446 Y10.268 E32.13336
G1 X4.956 Y10.513 E32.17568
G1 X4.381 Y10.762 E32.22414
G1 E31.22414 F2400.00000
G92 E0
G1 Z1.350 F7800.000
G1 X-0.389 Y3.377 F7800.000
G1 Z0.350 F7800.000
G1 E1.00000 F2400.00000
G1 X-0.939 Y3.267 E1.04339 F1800.000
G1 X-1.464 Y3.067 E1.08677
G1 X-1.949 Y2.785 E1.13016
G1 X-2.172 Y2.614 E1.15187
G1 X-2.573 Y2.221 E1.19526
G1 X-2.903 Y1.767 E1.23865
G1 X-3.039 Y1.521 E1.26036
G1 X-3.248 Y1.000 E1.30375
G1 X-3.320 Y0.729 E1.32546
G1 X-3.394 Y0.172 E1.36884
G1 X-3.377 Y-0.389 E1.41223
G1 X-3.267 Y-0.939 E1.45562
G1 X-3.178 Y-1.206 E1.47733
G1 X-2.936 Y-1.712 E1.52072
G1 X-2.614 Y-2.172 E1.56410
G1 X-2.426 Y-2.381 E1.58582
G1 X-2.001 Y-2.747 E1.62920
G1 X-1.521 Y-3.039 E1.67259
G1 X-1.000 Y-3.248 E1.71598
G1 X-0.729 Y-3.320 E1.73769
G1 X-0.174 Y-3.394 E1.78095
G1 X0.389 Y-3.377 E1.82446
G1 X0.666 Y-3.333 E1.84617 F1800.000
G1 X1.206 Y-3.178 E1.88956
G1 X1.712 Y-2.936 E1.93295
G1 X2.172 Y-2.614 E1.97633
G1 X2.573 Y-2.221 E2.01972
G1 X2.903 Y-1.767 E2.06311
G1 X3.155 Y-1.265 E2.10649
G1 X3.248 Y-1.000 E2.12821
G1 X3.369 Y-0.452 E2.17159
G1 X3.394 Y-0.172 E2.19330
G1 X3.377 Y0.389 E2.23669
G1 X3.333 Y0.666 E2.25840
G1 X3.178 Y1.206 E2.30179
G1 X2.935 Y1.714 E2.34530
G1 X2.614 Y2.172 E2.38856
G1 X2.221 Y2.573 E2.43195
G1 X2.001 Y2.747 E2.45366
G1 X1.521 Y3.039 E2.49705
G1 X1.000 Y3.248 E2.54044
G1 X0.443 Y3.369 E2.58449
G1 X0.172 Y3.394 E2.60553
G1 X-0.329 Y3.381 E2.64428
G1 X-0.486 Y3.994 F7800.000
G1 X-0.789 Y3.946 E2.66799 F1800.000
G1 X-1.112 Y3.868 E2.69370
G1 X-1.428 Y3.763 E2.71941
G1 X-1.733 Y3.632 E2.74511
G1 X-2.027 Y3.476 E2.77082
G1 X-2.308 Y3.297 E2.79653
G1 X-2.572 Y3.095 E2.82224
G1 X-2.819 Y2.872 E2.84794
G1 X-3.046 Y2.630 E2.87365
G1 X-3.253 Y2.369 E2.89936
G1 X-3.438 Y2.092 E2.92506
G1 X-3.599 Y1.801 E2.95077
G1 X-3.735 Y1.498 E2.97648
G1 X-3.846 Y1.184 E3.00219
G1 X-3.931 Y0.863 E3.02789
G1 X-3.989 Y0.535 E3.05360
G1 X-4.019 Y0.204 E3.07931
G1 X-4.022 Y-0.129 E3.10501
G1 X-3.998 Y-0.460 E3.13072
G1 X-3.946 Y-0.789 E3.15643
G1 X-3.868 Y-1.112 E3.18214
G1 X-3.763 Y-1.428 E3.20784
G1 X-3.632 Y-1.733 E3.23355
G1 X-3.476 Y-2.027 E3.25926
G1 X-3.297 Y-2.308 E3.28497
G1 X-3.095 Y-2.572 E3.31067
G1 X-2.872 Y-2.819 E3.33638
G1 X-2.630 Y-3.046 E3.36209
G1 X-2.369 Y-3.253 E3.38779
G1 X-2.092 Y-3.438 E3.41350
G1 X-1.801 Y-3.599 E3.43921
G1 X-1.498 Y-3.735 E3.46492
G1 X-1.184 Y-3.846 E3.49062
G1 X-0.863 Y-3.931 E3.51633
G1 X-0.535 Y-3.989 E3.54204
