; generated by Slic3r 1.2.9 on 2016-01-13 at 12:44:17

; external perimeters extrusion width = 0.40mm
; perimeters extrusion width = 0.67mm
; infill extrusion width = 0.67mm
; solid infill extrusion width = 0.67mm
; top infill extrusion width = 0.67mm
; support material extrusion width = 0.40mm

M107
M104 S210 ; set temperature
M106 S255 ; Fan ON
G28 ; home all axes
G29 ; Auto probe
G1 Z5 F5000 ; lift nozzle

M109 S210 ; wait for temperature to be reached
G21 ; set units to millimeters
G90 ; use absolute coordinates
M82 ; use absolute distances for extrusion
G92 E0
G1 Z0.350 F7800.000
G1 E-1.00000 F2400.00000
G92 E0
G1 X0.000 Y-26.157 F7800.000
G1 E1.00000 F2400.00000
G1 X25.434 Y-26.156 E3.12770 F1800.000
G1 X25.795 Y-26.150 E3.15791 F1800.000
G1 X26.623 Y-26.089 E3.22731
G1 X27.306 Y-25.999 E3.28495
G1 X28.674 Y-25.682 E3.40242
G1 X28.985 Y-25.577 E3.42992
G1 X29.844 Y-25.225 E3.50757
G1 X30.503 Y-24.899 E3.56906
G1 X31.340 Y-24.416 E3.64990
G1 X32.225 Y-23.773 E3.74141
G1 X32.977 Y-23.093 E3.82624
G1 X33.699 Y-22.301 E3.91591
G1 X33.922 Y-22.020 E3.94591
G1 X34.383 Y-21.372 E4.01244
G1 X34.586 Y-21.050 E4.04425
G1 X35.013 Y-20.273 E4.11843
G1 X35.189 Y-19.899 E4.15305
G1 X35.539 Y-19.009 E4.23302
G1 X35.680 Y-18.565 E4.27201
G1 X35.961 Y-17.309 E4.37966
G1 X36.037 Y-16.734 E4.42821
G1 X36.097 Y-15.942 E4.49466
G1 X36.114 Y-15.090 E4.56587
G1 X36.114 Y15.421 E7.11835
G1 X35.995 Y16.727 E7.22805
G1 X35.785 Y17.872 E7.32541
G1 X35.135 Y19.815 E7.49676
G1 X34.726 Y20.632 E7.57321
G1 X33.569 Y22.304 E7.74331
G1 X32.773 Y23.165 E7.84137
G1 X31.197 Y24.450 E8.01148
G1 X30.675 Y24.765 E8.06252
G1 X29.655 Y25.276 E8.15800
G1 X29.198 Y25.462 E8.19928
G1 X28.092 Y25.811 E8.29630
G1 X27.680 Y25.906 E8.33161
G1 X26.615 Y26.079 E8.42190
G1 X25.615 Y26.150 E8.50574
G1 X-25.796 Y26.150 E12.80651
G1 X-26.623 Y26.089 E12.87589
G1 X-27.306 Y25.999 E12.93354
G1 X-28.674 Y25.682 E13.05104
G1 X-28.986 Y25.577 E13.07854
G1 X-29.844 Y25.225 E13.15618
G1 X-30.503 Y24.899 E13.21764
G1 X-31.062 Y24.588 E13.27119
G1 X-31.340 Y24.416 E13.29852
G1 X-32.225 Y23.773 E13.39003
G1 X-32.977 Y23.093 E13.47486
G1 X-33.699 Y22.300 E13.56453
G1 X-33.923 Y22.020 E13.59453
G1 X-34.383 Y21.372 E13.66106
G1 X-34.586 Y21.050 E13.69287
G1 X-35.013 Y20.273 E13.76706
G1 X-35.189 Y19.898 E13.80168
G1 X-35.539 Y19.008 E13.88166
G1 X-35.681 Y18.564 E13.92065
G1 X-35.961 Y17.309 E14.02827
G1 X-36.037 Y16.733 E14.07682
G1 X-36.097 Y15.941 E14.14328
G1 X-36.114 Y15.090 E14.21448
G1 X-36.114 Y-15.422 E16.76696
G1 X-35.995 Y-16.728 E16.87672
G1 X-35.785 Y-17.873 E16.97411
G1 X-35.135 Y-19.815 E17.14540
G1 X-34.726 Y-20.631 E17.22175
G1 X-33.570 Y-22.303 E17.39179
G1 X-32.774 Y-23.164 E17.48989
G1 X-31.198 Y-24.449 E17.66005
G1 X-30.675 Y-24.765 E17.71108
G1 X-29.655 Y-25.276 E17.80657
G1 X-29.198 Y-25.462 E17.84785
G1 X-28.092 Y-25.811 E17.94486
G1 X-27.005 Y-26.027 E18.03761
G1 X-25.988 Y-26.134 E18.12313
G1 X-25.296 Y-26.157 E18.18102
G1 X-0.060 Y-26.157 E20.29216
G1 X0.000 Y-25.532 F7800.000
G1 X25.424 Y-25.531 E22.41900 F1800.000
G1 X25.785 Y-25.525 E22.44921 F1800.000
G1 X26.541 Y-25.470 E22.51263
G1 X27.224 Y-25.380 E22.57027
G1 X28.474 Y-25.090 E22.67762
G1 X28.786 Y-24.985 E22.70512
G1 X29.571 Y-24.663 E22.77608
G1 X30.223 Y-24.341 E22.83696
G1 X31.012 Y-23.884 E22.91318
G1 X31.820 Y-23.297 E22.99681
G1 X32.530 Y-22.656 E23.07674
G1 X33.210 Y-21.911 E23.16116
G1 X33.434 Y-21.631 E23.19116
G1 X33.855 Y-21.038 E23.25196
G1 X34.058 Y-20.717 E23.28377
G1 X34.447 Y-20.006 E23.35155
G1 X34.624 Y-19.632 E23.38618
G1 X34.943 Y-18.819 E23.45925
G1 X35.085 Y-18.375 E23.49824
G1 X35.341 Y-17.227 E23.59661
G1 X35.417 Y-16.652 E23.64516
G1 X35.472 Y-15.928 E23.70588
G1 X35.489 Y-15.090 E23.77599
G1 X35.489 Y15.421 E26.32846
G1 X35.380 Y16.615 E26.42871
G1 X35.171 Y17.760 E26.52607
G1 X34.577 Y19.535 E26.68265
G1 X34.167 Y20.352 E26.75910
G1 X33.110 Y21.880 E26.91453
G1 X32.314 Y22.740 E27.01259
G1 X30.874 Y23.915 E27.16804
G1 X30.352 Y24.230 E27.21908
G1 X29.420 Y24.697 E27.30633
G1 X28.962 Y24.883 E27.34761
G1 X27.952 Y25.202 E27.43627
G1 X26.923 Y25.408 E27.52403
G1 X25.960 Y25.509 E27.60504
G1 X25.296 Y25.532 E27.66061
G1 X-25.785 Y25.525 E31.93383
G1 X-26.541 Y25.470 E31.99724
G1 X-27.224 Y25.380 E32.05488
G1 X-28.475 Y25.090 E32.16226
G1 X-28.786 Y24.985 E32.18975
G1 X-29.571 Y24.663 E32.26070
G1 X-30.223 Y24.341 E32.32156
G1 X-31.012 Y23.884 E32.39781
G1 X-31.821 Y23.297 E32.48142
G1 X-32.530 Y22.656 E32.56136
G1 X-32.770 Y22.410 E32.59017
G1 X-33.434 Y21.631 E32.67579
G1 X-33.855 Y21.038 E32.73658
G1 X-34.058 Y20.717 E32.76839
G1 X-34.447 Y20.006 E32.83618
G1 X-34.624 Y19.632 E32.87080
G1 X-34.944 Y18.819 E32.94389
G1 X-35.085 Y18.375 E32.98288
G1 X-35.341 Y17.227 E33.08123
G1 X-35.417 Y16.652 E33.12977
G1 X-35.472 Y15.928 E33.19051
G1 X-35.489 Y15.090 E33.26060
G1 X-35.489 Y-15.422 E35.81307
G1 X-35.380 Y-16.616 E35.91337
G1 X-35.170 Y-17.761 E36.01076
G1 X-34.577 Y-19.535 E36.16729
G1 X-34.168 Y-20.351 E36.24365
G1 X-33.111 Y-21.879 E36.39903
G1 X-32.315 Y-22.740 E36.49712
G1 X-30.875 Y-23.915 E36.65261
G1 X-30.352 Y-24.230 E36.70365
G1 X-29.420 Y-24.697 E36.79090
G1 X-28.963 Y-24.883 E36.83218
G1 X-27.952 Y-25.202 E36.92084
G1 X-26.923 Y-25.408 E37.00863
G1 X-25.960 Y-25.509 E37.08962
G1 X-25.296 Y-25.532 E37.14520
G1 X-0.060 Y-25.532 E39.25634
G1 E38.25634 F2400.00000
G92 E0
G1 X-27.449 Y-18.244 F7800.000
G1 E1.00000 F2400.00000
G1 X-28.864 Y-15.422 E1.13731 F1800.000
G1 X-28.864 Y-14.695 E1.16891
G1 X-26.927 Y-18.559 E1.35691
G1 X-26.470 Y-18.745 E1.37837
G1 X-28.864 Y-13.969 E1.61074
G1 X-28.864 Y-13.242 E1.64234
G1 X-26.058 Y-18.840 E1.91466
G1 X-25.669 Y-18.891 E1.93176
G1 X-28.864 Y-12.516 E2.24191
G1 X-28.864 Y-11.789 E2.27351
G1 X-25.296 Y-18.907 E2.61981
G1 X-24.932 Y-18.907 E2.63564
G1 X-28.864 Y-11.063 E3.01728
G1 X-28.864 Y-10.336 E3.04888
G1 X-24.568 Y-18.907 E3.46587
G1 X-24.204 Y-18.907 E3.48170
G1 X-28.864 Y-9.610 E3.93403
G1 X-28.864 Y-8.883 E3.96563
G1 X-23.840 Y-18.907 E4.45330
G1 X-23.476 Y-18.907 E4.46914
G1 X-28.864 Y-8.157 E4.99215
G1 X-28.864 Y-7.430 E5.02375
G1 X-23.112 Y-18.907 E5.58210
G1 X-22.747 Y-18.907 E5.59794
G1 X-28.864 Y-6.704 E6.19164
G1 X-28.864 Y-5.977 E6.22324
G1 X-22.383 Y-18.907 E6.85228
G1 X-22.019 Y-18.907 E6.86812
G1 X-28.864 Y-5.251 E7.53251
G1 X-28.864 Y-4.524 E7.56411
G1 X-21.655 Y-18.907 E8.26384
G1 X-21.291 Y-18.907 E8.27967
G1 X-28.864 Y-3.798 E9.01475
G1 X-28.864 Y-3.072 E9.04635
G1 X-20.927 Y-18.907 E9.81677
G1 X-20.563 Y-18.907 E9.83260
G1 X-28.864 Y-2.345 E10.63836
G1 X-28.864 Y-1.619 E10.66996
G1 X-20.199 Y-18.907 E11.51107
G1 X-19.835 Y-18.907 E11.52690
G1 X-28.864 Y-0.892 E12.40335
G1 X-28.864 Y-0.166 E12.43495
G1 X-19.470 Y-18.907 E13.34674
G1 X-19.106 Y-18.907 E13.36258
G1 X-28.864 Y0.561 E14.30971
G1 X-28.864 Y1.287 E14.34131
G1 X-18.742 Y-18.907 E15.32379
G1 X-18.378 Y-18.907 E15.33963
G1 X-28.864 Y2.014 E16.35745
G1 X-28.864 Y2.740 E16.38905
G1 X-18.014 Y-18.907 E17.44221
G1 X-17.650 Y-18.907 E17.45805
G1 X-28.864 Y3.467 E18.54656
G1 X-28.864 Y4.193 E18.57815
G1 X-17.286 Y-18.907 E19.70201
G1 X-16.922 Y-18.907 E19.71784
G1 X-28.864 Y4.920 E20.87704
G1 X-28.864 Y5.646 E20.90864
G1 X-16.558 Y-18.907 E22.10318
G1 X-16.193 Y-18.907 E22.11901
G1 X-28.864 Y6.373 E23.34890
G1 X-28.864 Y7.099 E23.38049
G1 X-15.829 Y-18.907 E24.64572
G1 X-15.465 Y-18.907 E24.66156
G1 X-28.864 Y7.826 E25.96213
G1 X-28.864 Y8.552 E25.99372
G1 X-15.101 Y-18.907 E27.32964
G1 X-14.737 Y-18.907 E27.34547
G1 X-28.864 Y9.278 E28.71673
G1 X-28.864 Y10.005 E28.74833
G1 X-14.373 Y-18.907 E30.15493
G1 X-14.009 Y-18.907 E30.17076
G1 X-28.864 Y10.731 E31.61271
G1 X-28.864 Y11.458 E31.64430
G1 X-13.645 Y-18.907 E33.12159
G1 X-13.281 Y-18.907 E33.13743
G1 X-28.864 Y12.184 E34.65006
G1 X-28.864 Y12.911 E34.68166
G1 X-12.916 Y-18.907 E36.22963
G1 X-12.552 Y-18.907 E36.24547
G1 X-28.864 Y13.637 E37.82878
G1 X-28.864 Y14.364 E37.86038
G1 X-12.188 Y-18.907 E39.47904
G1 X-11.824 Y-18.907 E39.49488
G1 X-28.864 Y15.090 E41.14888
G1 X-28.849 Y15.787 E41.17920
G1 X-11.460 Y-18.907 E42.86711
G1 X-11.096 Y-18.907 E42.88295
G1 X-28.773 Y16.363 E44.59885
G1 X-28.632 Y16.807 E44.61912
G1 X-10.732 Y-18.907 E46.35662
G1 X-10.368 Y-18.907 E46.37246
G1 X-28.455 Y17.181 E48.12818
G1 X-28.252 Y17.503 E48.14471
G1 X-10.004 Y-18.907 E49.91608
G1 X-9.639 Y-18.907 E49.93191
G1 X-28.029 Y17.783 E51.71692
G1 X-27.788 Y18.030 E51.73190
G1 X-9.275 Y-18.907 E53.52891
G1 X-8.911 Y-18.907 E53.54474
G1 X-27.533 Y18.246 E55.35230
G1 X-27.255 Y18.418 E55.36651
G1 X-8.547 Y-18.907 E57.18241
G1 X-8.183 Y-18.907 E57.19825
G1 X-26.964 Y18.564 E59.02125
G1 X-26.671 Y18.706 E59.03541
G1 X-7.819 Y-18.907 E60.86534
G1 X-7.455 Y-18.907 E60.88117
G1 X-26.359 Y18.811 E62.71621
G1 X-26.018 Y18.856 E62.73120
G1 X-7.091 Y-18.907 E64.56842
G1 X-6.727 Y-18.907 E64.58426
G1 X-25.676 Y18.901 E66.42367
G1 X-25.315 Y18.907 E66.43938
G1 X-6.362 Y-18.907 E68.27908
G1 X-5.998 Y-18.907 E68.29492
G1 X-24.951 Y18.907 E70.13462
G1 X-24.587 Y18.907 E70.15046
G1 X-5.634 Y-18.907 E71.99016
G1 X-5.270 Y-18.907 E72.00600
G1 X-24.223 Y18.907 E73.84570
G1 X-23.859 Y18.907 E73.86153
G1 X-4.906 Y-18.907 E75.70124
G1 X-4.542 Y-18.907 E75.71707
G1 X-23.495 Y18.907 E77.55678
G1 X-23.131 Y18.907 E77.57261
G1 X-4.178 Y-18.907 E79.41231
G1 X-3.814 Y-18.907 E79.42815
G1 X-22.766 Y18.907 E81.26785
G1 X-22.402 Y18.907 E81.28369
G1 X-3.450 Y-18.907 E83.12339
G1 X-3.085 Y-18.907 E83.13923
G1 X-22.038 Y18.907 E84.97893
G1 X-21.674 Y18.907 E84.99477
G1 X-2.721 Y-18.907 E86.83447
G1 X-2.357 Y-18.907 E86.85030
G1 X-21.310 Y18.907 E88.69001
G1 X-20.946 Y18.907 E88.70584
G1 X-1.993 Y-18.907 E90.54555
G1 X-1.629 Y-18.907 E90.56138
G1 X-20.582 Y18.907 E92.40108
G1 X-20.218 Y18.907 E92.41692
G1 X-1.265 Y-18.907 E94.25662
G1 X-0.901 Y-18.907 E94.27246
G1 X-19.854 Y18.907 E96.11216
G1 X-19.489 Y18.907 E96.12800
G1 X-0.537 Y-18.907 E97.96770
G1 X-0.173 Y-18.907 E97.98354
G1 X-19.125 Y18.907 E99.82324
G1 X-18.761 Y18.907 E99.83907
G1 X0.192 Y-18.907 E101.67878
G1 X0.556 Y-18.907 E101.69461
G1 X-18.397 Y18.907 E103.53431
G1 X-18.033 Y18.907 E103.55015
G1 X0.920 Y-18.907 E105.38985
G1 X1.284 Y-18.907 E105.40569
G1 X-17.669 Y18.907 E107.24539
G1 X-17.305 Y18.907 E107.26123
G1 X1.648 Y-18.907 E109.10093
G1 X2.012 Y-18.907 E109.11677
G1 X-16.941 Y18.907 E110.95647
G1 X-16.577 Y18.907 E110.97231
G1 X2.376 Y-18.907 E112.81201
G1 X2.740 Y-18.907 E112.82784
G1 X-16.212 Y18.907 E114.66755
G1 X-15.848 Y18.907 E114.68338
G1 X3.104 Y-18.907 E116.52308
G1 X3.468 Y-18.907 E116.53892
G1 X-15.484 Y18.907 E118.37862
G1 X-15.120 Y18.907 E118.39446
G1 X3.833 Y-18.907 E120.23416
G1 X4.197 Y-18.907 E120.25000
G1 X-14.756 Y18.907 E122.08970
G1 X-14.392 Y18.907 E122.10554
G1 X4.561 Y-18.907 E123.94524
G1 X4.925 Y-18.907 E123.96108
G1 X-14.028 Y18.907 E125.80078
G1 X-13.664 Y18.907 E125.81661
G1 X5.289 Y-18.907 E127.65632
G1 X5.653 Y-18.907 E127.67215
G1 X-13.300 Y18.907 E129.51185
G1 X-12.935 Y18.907 E129.52769
G1 X6.017 Y-18.907 E131.36739
G1 X6.381 Y-18.907 E131.38323
G1 X-12.571 Y18.907 E133.22293
G1 X-12.207 Y18.907 E133.23877
G1 X6.745 Y-18.907 E135.07847
G1 X7.110 Y-18.907 E135.09431
G1 X-11.843 Y18.907 E136.93401
G1 X-11.479 Y18.907 E136.94984
G1 X7.474 Y-18.907 E138.78955
G1 X7.838 Y-18.907 E138.80538
G1 X-11.115 Y18.907 E140.64509
G1 X-10.751 Y18.907 E140.66092
G1 X8.202 Y-18.907 E142.50062
G1 X8.566 Y-18.907 E142.51646
G1 X-10.387 Y18.907 E144.35616
G1 X-10.023 Y18.907 E144.37200
G1 X8.930 Y-18.907 E146.21170
G1 X9.294 Y-18.907 E146.22754
G1 X-9.658 Y18.907 E148.06724
G1 X-9.294 Y18.907 E148.08308
G1 X9.658 Y-18.907 E149.92278
G1 X10.022 Y-18.907 E149.93861
G1 X-8.930 Y18.907 E151.77832
G1 X-8.566 Y18.907 E151.79415
G1 X10.387 Y-18.907 E153.63386
G1 X10.751 Y-18.907 E153.64969
G1 X-8.202 Y18.907 E155.48939
G1 X-7.838 Y18.907 E155.50523
G1 X11.115 Y-18.907 E157.34493
G1 X11.479 Y-18.907 E157.36077
G1 X-7.474 Y18.907 E159.20047
G1 X-7.110 Y18.907 E159.21631
G1 X11.843 Y-18.907 E161.05601
G1 X12.207 Y-18.907 E161.07185
G1 X-6.746 Y18.907 E162.91155
G1 X-6.381 Y18.907 E162.92738
G1 X12.571 Y-18.907 E164.76709
G1 X12.935 Y-18.907 E164.78292
G1 X-6.017 Y18.907 E166.62263
G1 X-5.653 Y18.907 E166.63846
G1 X13.299 Y-18.907 E168.47816
G1 X13.664 Y-18.907 E168.49400
G1 X-5.289 Y18.907 E170.33370
G1 X-4.925 Y18.907 E170.34954
G1 X14.028 Y-18.907 E172.18924
G1 X14.392 Y-18.907 E172.20508
G1 X-4.561 Y18.907 E174.04478
G1 X-4.197 Y18.907 E174.06062
G1 X14.756 Y-18.907 E175.90032
G1 X15.120 Y-18.907 E175.91615
G1 X-3.833 Y18.907 E177.75586
G1 X-3.469 Y18.907 E177.77169
G1 X15.484 Y-18.907 E179.61139
G1 X15.848 Y-18.907 E179.62723
G1 X-3.104 Y18.907 E181.46693
G1 X-2.740 Y18.907 E181.48277
G1 X16.212 Y-18.907 E183.32247
G1 X16.576 Y-18.907 E183.33831
G1 X-2.376 Y18.907 E185.17801
G1 X-2.012 Y18.907 E185.19385
G1 X16.941 Y-18.907 E187.03355
G1 X17.305 Y-18.907 E187.04939
G1 X-1.648 Y18.907 E188.88909
G1 X-1.284 Y18.907 E188.90492
G1 X17.669 Y-18.907 E190.74463
G1 X18.033 Y-18.907 E190.76046
G1 X-0.920 Y18.907 E192.60016
G1 X-0.556 Y18.907 E192.61600
G1 X18.397 Y-18.907 E194.45570
G1 X18.761 Y-18.907 E194.47154
G1 X-0.192 Y18.907 E196.31124
G1 X0.173 Y18.907 E196.32708
G1 X19.125 Y-18.907 E198.16678
G1 X19.489 Y-18.907 E198.18262
G1 X0.537 Y18.907 E200.02232
G1 X0.901 Y18.907 E200.03816
G1 X19.853 Y-18.907 E201.87786
G1 X20.218 Y-18.907 E201.89369
G1 X1.265 Y18.907 E203.73340
G1 X1.629 Y18.907 E203.74923
G1 X20.582 Y-18.907 E205.58893
G1 X20.946 Y-18.907 E205.60477
G1 X1.993 Y18.907 E207.44447
G1 X2.357 Y18.907 E207.46031
G1 X21.310 Y-18.907 E209.30001
G1 X21.674 Y-18.907 E209.31585
G1 X2.721 Y18.907 E211.15555
G1 X3.085 Y18.907 E211.17139
G1 X22.038 Y-18.907 E213.01109
G1 X22.402 Y-18.907 E213.02693
G1 X3.450 Y18.907 E214.86663
G1 X3.814 Y18.907 E214.88246
G1 X22.766 Y-18.907 E216.72217
G1 X23.130 Y-18.907 E216.73800
G1 X4.178 Y18.907 E218.57770
G1 X4.542 Y18.907 E218.59354
G1 X23.495 Y-18.907 E220.43324
G1 X23.859 Y-18.907 E220.44908
G1 X4.906 Y18.907 E222.28878
G1 X5.270 Y18.907 E222.30462
G1 X24.223 Y-18.907 E224.14432
G1 X24.587 Y-18.907 E224.16016
G1 X5.634 Y18.907 E225.99986
G1 X5.998 Y18.907 E226.01569
G1 X24.951 Y-18.907 E227.85540
G1 X25.315 Y-18.907 E227.87123
G1 X6.362 Y18.907 E229.71094
G1 X6.726 Y18.907 E229.72677
G1 X25.676 Y-18.901 E231.56619
G1 X26.018 Y-18.856 E231.58117
G1 X7.091 Y18.907 E233.41840
G1 X7.455 Y18.907 E233.43423
G1 X26.359 Y-18.811 E235.26927
G1 X26.671 Y-18.706 E235.28357
G1 X7.819 Y18.907 E237.11350
G1 X8.183 Y18.907 E237.12934
G1 X26.964 Y-18.564 E238.95234
G1 X27.255 Y-18.418 E238.96650
G1 X8.547 Y18.907 E240.78240
G1 X8.911 Y18.907 E240.79824
G1 X27.533 Y-18.246 E242.60579
G1 X27.788 Y-18.030 E242.62037
G1 X9.275 Y18.907 E244.41737
G1 X9.639 Y18.907 E244.43321
G1 X28.029 Y-17.783 E246.21822
G1 X28.252 Y-17.503 E246.23382
G1 X10.003 Y18.907 E248.00519
G1 X10.368 Y18.907 E248.02102
G1 X28.455 Y-17.181 E249.77674
G1 X28.632 Y-16.807 E249.79474
G1 X10.732 Y18.907 E251.53225
G1 X11.096 Y18.907 E251.54809
G1 X28.773 Y-16.363 E253.26400
G1 X28.849 Y-15.787 E253.28924
G1 X11.460 Y18.907 E254.97715
G1 X11.824 Y18.907 E254.99299
G1 X28.864 Y-15.090 E256.64700
G1 X28.864 Y-14.364 E256.67860
G1 X12.188 Y18.907 E258.29727
G1 X12.552 Y18.907 E258.31310
G1 X28.864 Y-13.638 E259.89643
G1 X28.864 Y-12.911 E259.92803
G1 X12.916 Y18.907 E261.47601
G1 X13.280 Y18.907 E261.49185
G1 X28.864 Y-12.185 E263.00449
G1 X28.864 Y-11.458 E263.03608
G1 X13.645 Y18.907 E264.51338
G1 X14.009 Y18.907 E264.52922
G1 X28.864 Y-10.732 E265.97117
G1 X28.864 Y-10.005 E266.00276
G1 X14.373 Y18.907 E267.40937
G1 X14.737 Y18.907 E267.42521
G1 X28.864 Y-9.279 E268.79648
G1 X28.864 Y-8.552 E268.82807
G1 X15.101 Y18.907 E270.16399
G1 X15.465 Y18.907 E270.17983
G1 X28.864 Y-7.826 E271.48041
G1 X28.864 Y-7.099 E271.51201
G1 X15.829 Y18.907 E272.77724
G1 X16.193 Y18.907 E272.79308
G1 X28.864 Y-6.373 E274.02297
G1 X28.864 Y-5.646 E274.05457
G1 X16.557 Y18.907 E275.24912
G1 X16.922 Y18.907 E275.26495
G1 X28.864 Y-4.920 E276.42416
G1 X28.864 Y-4.193 E276.45575
G1 X17.286 Y18.907 E277.57962
G1 X17.650 Y18.907 E277.59545
G1 X28.864 Y-3.467 E278.68397
