; generated by Slic3r 1.2.9 on 2016-01-21 at 13:51:17

; external perimeters extrusion width = 0.30mm
; perimeters extrusion width = 0.40mm
; infill extrusion width = 0.40mm
; solid infill extrusion width = 0.40mm
; top infill extrusion width = 0.40mm
; support material extrusion width = 0.30mm

M107
M104 S210 ; set temperature
M106 S255 ; Fan ON
G28 ; home all axes
; G29 ; Auto probe
G1 Z5 F5000 ; lift nozzle

M109 S210 ; wait for temperature to be reached
G21 ; set units to millimeters
G90 ; use absolute coordinates
M82 ; use absolute distances for extrusion
G92 E0
G1 Z0.150 F7800.000
G1 E-1.00000 F2400.00000
G92 E0
G1 Z1.150 F7800.000
G1 X3.363 Y18.639 F7800.000
G1 Z0.150 F7800.000
G1 E1.00000 F2400.00000
G1 X2.380 Y18.793 E1.01661 F1800.000
G1 X1.670 Y18.869 E1.02854
G1 X1.033 Y18.915 E1.03921
G1 X-0.319 Y18.940 E1.06179
G1 X-1.033 Y18.915 E1.07372
G1 X-2.379 Y18.793 E1.09630
G1 X-3.011 Y18.702 E1.10697
G1 X-4.338 Y18.440 E1.12954
G1 X-5.030 Y18.263 E1.14147
G1 X-6.320 Y17.858 E1.16406
G1 X-6.925 Y17.632 E1.17485
G1 X-8.158 Y17.096 E1.19730
G1 X-8.797 Y16.776 E1.20923
G1 X-9.971 Y16.106 E1.23181
G1 X-10.508 Y15.761 E1.24248
G1 X-11.606 Y14.971 E1.26506
G1 X-12.162 Y14.523 E1.27699
G1 X-13.167 Y13.619 E1.29957
G1 X-14.105 Y12.644 E1.32216
G1 X-14.965 Y11.613 E1.34459
G1 X-15.354 Y11.095 E1.35540
G1 X-15.762 Y10.508 E1.36734
G1 X-16.470 Y9.357 E1.38991
G1 X-17.096 Y8.159 E1.41249
G1 X-17.361 Y7.578 E1.42316
G1 X-17.634 Y6.918 E1.43508
G1 X-18.083 Y5.642 E1.45767
G1 X-18.439 Y4.338 E1.48025
G1 X-18.575 Y3.714 E1.49091
G1 X-18.702 Y3.010 E1.50285
G1 X-18.869 Y1.670 E1.52542
G1 X-18.940 Y0.328 E1.54786
G1 X-18.940 Y-0.319 E1.55867
G1 X-18.915 Y-1.034 E1.57062
G1 X-18.793 Y-2.380 E1.59319
G1 X-18.575 Y-3.714 E1.61576
G1 X-18.439 Y-4.338 E1.62643
G1 X-18.263 Y-5.031 E1.63836
G1 X-17.858 Y-6.320 E1.66093
G1 X-17.634 Y-6.918 E1.67160
G1 X-17.096 Y-8.159 E1.69418
G1 X-16.776 Y-8.797 E1.70611
G1 X-16.106 Y-9.971 E1.72869
G1 X-15.761 Y-10.508 E1.73935
G1 X-14.971 Y-11.606 E1.76194
G1 X-14.105 Y-12.645 E1.78452
G1 X-13.618 Y-13.167 E1.79645
G1 X-12.645 Y-14.105 E1.81903
G1 X-12.162 Y-14.523 E1.82969
G1 X-11.095 Y-15.354 E1.85228
G1 X-10.508 Y-15.761 E1.86420
G1 X-9.964 Y-16.111 E1.87501
G1 X-8.797 Y-16.776 E1.89745
G1 X-8.159 Y-17.096 E1.90937
G1 X-6.918 Y-17.634 E1.93196
G1 X-6.320 Y-17.858 E1.94262
G1 X-5.031 Y-18.263 E1.96519
G1 X-4.338 Y-18.439 E1.97713
G1 X-3.012 Y-18.702 E1.99971
G1 X-2.380 Y-18.793 E2.01036
G1 X-1.034 Y-18.915 E2.03294
G1 X0.327 Y-18.940 E2.05567
G1 X1.670 Y-18.869 E2.07813 F1800.000
G1 X2.379 Y-18.793 E2.09005
G1 X3.019 Y-18.701 E2.10085
G1 X4.338 Y-18.439 E2.12330
G1 X5.642 Y-18.083 E2.14589
G1 X6.320 Y-17.858 E2.15781
G1 X7.578 Y-17.361 E2.18039
G1 X8.797 Y-16.776 E2.20298
G1 X9.357 Y-16.470 E2.21364
G1 X10.508 Y-15.761 E2.23622
G1 X11.606 Y-14.971 E2.25881
G1 X12.644 Y-14.105 E2.28139
G1 X13.167 Y-13.619 E2.29332
G1 X14.105 Y-12.645 E2.31590
G1 X14.523 Y-12.162 E2.32657
G1 X15.354 Y-11.095 E2.34915
G1 X16.106 Y-9.971 E2.37173
G1 X16.470 Y-9.357 E2.38366
G1 X17.096 Y-8.159 E2.40624
G1 X17.634 Y-6.918 E2.42882
G1 X17.858 Y-6.320 E2.43949
G1 X18.263 Y-5.030 E2.46207
G1 X18.575 Y-3.714 E2.48466
G1 X18.702 Y-3.011 E2.49659
G1 X18.869 Y-1.670 E2.51916
G1 X18.940 Y-0.319 E2.54175
G1 X18.915 Y1.033 E2.56433
G1 X18.869 Y1.670 E2.57500
G1 X18.793 Y2.380 E2.58693
G1 X18.578 Y3.696 E2.60921
G1 X18.439 Y4.338 E2.62017
G1 X18.263 Y5.030 E2.63209
G1 X17.857 Y6.320 E2.65468
G1 X17.361 Y7.578 E2.67726
G1 X17.096 Y8.159 E2.68793
G1 X16.776 Y8.797 E2.69985
G1 X16.106 Y9.971 E2.72243
G1 X15.364 Y11.080 E2.74472
G1 X14.971 Y11.606 E2.75568
G1 X14.105 Y12.645 E2.77827
G1 X13.619 Y13.167 E2.79019
G1 X12.645 Y14.105 E2.81277
G1 X11.606 Y14.971 E2.83536
G1 X11.095 Y15.354 E2.84602
G1 X9.971 Y16.106 E2.86861
G1 X9.357 Y16.470 E2.88053
G1 X8.159 Y17.096 E2.90311
G1 X6.918 Y17.634 E2.92570
G1 X6.303 Y17.863 E2.93665
G1 X5.030 Y18.263 E2.95894
G1 X4.338 Y18.439 E2.97087
G1 X3.407 Y18.631 E2.98674
G1 X3.315 Y18.375 F7800.000
G1 X2.352 Y18.526 E3.00303 F1800.000
G1 X1.641 Y18.603 E3.01497
G1 X1.023 Y18.647 E3.02531
G1 X-0.310 Y18.673 E3.04758
G1 X-1.023 Y18.647 E3.05950
G1 X-2.351 Y18.527 E3.08177
G1 X-2.964 Y18.438 E3.09211
G1 X-4.271 Y18.180 E3.11437
G1 X-4.964 Y18.003 E3.12630
G1 X-6.235 Y17.604 E3.14856
G1 X-6.823 Y17.384 E3.15904
G1 X-8.038 Y16.857 E3.18117
G1 X-8.677 Y16.537 E3.19310
G1 X-9.835 Y15.876 E3.21536
G1 X-10.356 Y15.541 E3.22571
G1 X-11.438 Y14.763 E3.24797
G1 X-11.994 Y14.315 E3.25990
G1 X-12.984 Y13.423 E3.28216
G1 X-13.909 Y12.462 E3.30443
G1 X-14.757 Y11.445 E3.32654
G1 X-15.134 Y10.942 E3.33704
G1 X-15.542 Y10.355 E3.34898
G1 X-16.240 Y9.221 E3.37123
G1 X-16.856 Y8.039 E3.39349
G1 X-17.114 Y7.475 E3.40383
G1 X-17.387 Y6.816 E3.41576
G1 X-17.829 Y5.558 E3.43802
G1 X-18.180 Y4.272 E3.46029
G1 X-18.312 Y3.666 E3.47063
G1 X-18.439 Y2.963 E3.48257
G1 X-18.603 Y1.641 E3.50482
G1 X-18.672 Y0.319 E3.52694
G1 X-18.673 Y-0.310 E3.53743
G1 X-18.647 Y-1.025 E3.54938
G1 X-18.526 Y-2.352 E3.57164
G1 X-18.312 Y-3.666 E3.59388
G1 X-18.180 Y-4.272 E3.60423
G1 X-18.003 Y-4.964 E3.61617
G1 X-17.604 Y-6.235 E3.63842
G1 X-17.387 Y-6.816 E3.64876
G1 X-16.856 Y-8.039 E3.67103
G1 X-16.537 Y-8.677 E3.68295
G1 X-15.876 Y-9.835 E3.70521
G1 X-15.541 Y-10.356 E3.71556
G1 X-14.763 Y-11.438 E3.73783
G1 X-13.909 Y-12.462 E3.76009
G1 X-13.422 Y-12.985 E3.77202
G1 X-12.462 Y-13.909 E3.79428
G1 X-11.994 Y-14.315 E3.80462
G1 X-10.942 Y-15.134 E3.82689
G1 X-10.356 Y-15.541 E3.83881
G1 X-9.835 Y-15.876 E3.84915
G1 X-8.677 Y-16.537 E3.87142
G1 X-8.039 Y-16.856 E3.88334
G1 X-6.816 Y-17.387 E3.90561
G1 X-6.235 Y-17.604 E3.91596
G1 X-4.964 Y-18.003 E3.93820
G1 X-4.272 Y-18.180 E3.95014
G1 X-2.964 Y-18.438 E3.97241
G1 X-2.342 Y-18.528 E3.98290
G1 X-1.025 Y-18.647 E4.00499
G1 X0.317 Y-18.672 E4.02741
G1 X1.641 Y-18.603 E4.04955 F1800.000
G1 X2.351 Y-18.527 E4.06147
G1 X2.972 Y-18.437 E4.07195
G1 X4.272 Y-18.180 E4.09408
G1 X5.558 Y-17.829 E4.11635
G1 X6.235 Y-17.604 E4.12827
G1 X7.475 Y-17.114 E4.15053
G1 X8.677 Y-16.537 E4.17280
G1 X9.221 Y-16.240 E4.18314
G1 X10.356 Y-15.541 E4.20541
G1 X11.438 Y-14.763 E4.22767
G1 X12.462 Y-13.909 E4.24994
G1 X12.984 Y-13.423 E4.26186
G1 X13.909 Y-12.462 E4.28413
G1 X14.315 Y-11.994 E4.29447
G1 X15.134 Y-10.942 E4.31674
G1 X15.876 Y-9.835 E4.33900
G1 X16.240 Y-9.221 E4.35092
G1 X16.856 Y-8.039 E4.37319
G1 X17.387 Y-6.816 E4.39545
G1 X17.604 Y-6.235 E4.40580
G1 X18.003 Y-4.964 E4.42806
G1 X18.312 Y-3.666 E4.45033
G1 X18.438 Y-2.964 E4.46226
G1 X18.603 Y-1.641 E4.48452
G1 X18.673 Y-0.310 E4.50678
G1 X18.647 Y1.023 E4.52905
G1 X18.603 Y1.641 E4.53939
G1 X18.527 Y2.351 E4.55132
G1 X18.315 Y3.649 E4.57328
G1 X18.003 Y4.963 E4.59584
G1 X17.603 Y6.236 E4.61812
G1 X17.114 Y7.475 E4.64037
G1 X16.856 Y8.039 E4.65072
G1 X16.537 Y8.677 E4.66264
G1 X15.876 Y9.835 E4.68491
G1 X15.144 Y10.927 E4.70687
G1 X14.763 Y11.438 E4.71752
G1 X14.315 Y11.994 E4.72944
G1 X13.423 Y12.984 E4.75171
G1 X12.462 Y13.909 E4.77397
G1 X11.994 Y14.315 E4.78432
G1 X10.942 Y15.134 E4.80658
G1 X9.835 Y15.876 E4.82885
G1 X9.221 Y16.240 E4.84077
G1 X8.039 Y16.856 E4.86303
G1 X6.816 Y17.387 E4.88530
G1 X6.219 Y17.609 E4.89594
G1 X4.964 Y18.003 E4.91791
G1 X4.272 Y18.180 E4.92983
G1 X3.359 Y18.367 E4.94539
G1 X3.268 Y18.112 F7800.000
G1 X2.323 Y18.260 E4.96135 F1800.000
G1 X1.612 Y18.337 E4.97329
G1 X1.014 Y18.379 E4.98332
G1 X-0.300 Y18.405 E5.00527
G1 X-1.014 Y18.379 E5.01719
G1 X-2.322 Y18.260 E5.03913
G1 X-2.916 Y18.175 E5.04916
G1 X-4.205 Y17.921 E5.07110
G1 X-4.897 Y17.744 E5.08303
G1 X-6.151 Y17.349 E5.10497
G1 X-6.720 Y17.137 E5.11513
G1 X-7.918 Y16.617 E5.13694
G1 X-8.557 Y16.297 E5.14887
G1 X-9.698 Y15.646 E5.17081
G1 X-10.203 Y15.321 E5.18084
G1 X-11.270 Y14.554 E5.20278
G1 X-11.826 Y14.106 E5.21471
G1 X-12.802 Y13.227 E5.23665
G1 X-13.713 Y12.279 E5.25861
G1 X-14.548 Y11.277 E5.28040
G1 X-14.914 Y10.789 E5.29057
G1 X-15.321 Y10.202 E5.30251
G1 X-16.010 Y9.084 E5.32444
G1 X-16.617 Y7.919 E5.34639
G1 X-16.866 Y7.373 E5.35641
G1 X-17.140 Y6.713 E5.36834
G1 X-17.575 Y5.473 E5.39028
G1 X-17.921 Y4.206 E5.41223
G1 X-18.048 Y3.619 E5.42225
G1 X-18.175 Y2.915 E5.43419
G1 X-18.337 Y1.612 E5.45612
G1 X-18.405 Y0.309 E5.47792
G1 X-18.405 Y-0.300 E5.48809
G1 X-18.379 Y-1.015 E5.50004
G1 X-18.260 Y-2.323 E5.52198
G1 X-18.048 Y-3.619 E5.54391
G1 X-17.921 Y-4.206 E5.55393
G1 X-17.744 Y-4.898 E5.56587
G1 X-17.349 Y-6.151 E5.58780
G1 X-17.140 Y-6.713 E5.59783
G1 X-16.617 Y-7.919 E5.61978
G1 X-16.297 Y-8.557 E5.63170
G1 X-15.646 Y-9.698 E5.65364
G1 X-14.919 Y-10.782 E5.67544
G1 X-14.554 Y-11.270 E5.68562
G1 X-13.713 Y-12.280 E5.70756
G1 X-13.226 Y-12.802 E5.71949
G1 X-12.280 Y-13.713 E5.74143
G1 X-11.826 Y-14.106 E5.75146
G1 X-10.789 Y-14.914 E5.77340
G1 X-10.203 Y-15.321 E5.78532
G1 X-9.698 Y-15.645 E5.79535
G1 X-8.557 Y-16.297 E5.81729
G1 X-7.919 Y-16.617 E5.82922
G1 X-6.713 Y-17.140 E5.85116
G1 X-6.151 Y-17.349 E5.86119
G1 X-4.898 Y-17.744 E5.88312
G1 X-4.206 Y-17.921 E5.89506
G1 X-2.916 Y-18.175 E5.91700
G1 X-2.323 Y-18.260 E5.92701
G1 X-1.015 Y-18.379 E5.94895
G1 X0.308 Y-18.405 E5.97105
G1 X1.612 Y-18.337 E5.99287 F1800.000
G1 X2.322 Y-18.260 E6.00479
G1 X2.924 Y-18.173 E6.01495
G1 X4.206 Y-17.921 E6.03676
G1 X5.473 Y-17.575 E6.05871
G1 X6.151 Y-17.349 E6.07063
G1 X7.373 Y-16.866 E6.09258
G1 X8.557 Y-16.297 E6.11452
G1 X9.084 Y-16.010 E6.12455
G1 X10.203 Y-15.321 E6.14649
G1 X11.270 Y-14.554 E6.16844
G1 X12.279 Y-13.713 E6.19038
G1 X12.802 Y-13.227 E6.20231
G1 X13.713 Y-12.280 E6.22425
G1 X14.106 Y-11.826 E6.23428
G1 X14.914 Y-10.789 E6.25623
G1 X15.646 Y-9.698 E6.27817
G1 X16.010 Y-9.084 E6.29009
G1 X16.617 Y-7.919 E6.31204
G1 X17.140 Y-6.713 E6.33399
G1 X17.349 Y-6.151 E6.34401
G1 X17.744 Y-4.897 E6.36596
G1 X18.048 Y-3.619 E6.38790
G1 X18.175 Y-2.916 E6.39983
G1 X18.337 Y-1.612 E6.42177
G1 X18.405 Y-0.300 E6.44372
G1 X18.379 Y1.014 E6.46566
G1 X18.337 Y1.612 E6.47569
G1 X18.260 Y2.323 E6.48762
G1 X18.048 Y3.619 E6.50956
G1 X17.921 Y4.206 E6.51958
G1 X17.575 Y5.473 E6.54153
G1 X17.349 Y6.151 E6.55346
G1 X16.866 Y7.373 E6.57540
G1 X16.297 Y8.557 E6.59734
G1 X15.646 Y9.698 E6.61929
G1 X15.321 Y10.203 E6.62932
G1 X14.554 Y11.270 E6.65126
G1 X14.106 Y11.826 E6.66318
G1 X13.227 Y12.802 E6.68513
G1 X12.280 Y13.713 E6.70708
G1 X11.826 Y14.106 E6.71710
G1 X10.789 Y14.914 E6.73905
G1 X9.698 Y15.646 E6.76099
G1 X9.084 Y16.010 E6.77292
G1 X7.919 Y16.617 E6.79486
G1 X6.713 Y17.140 E6.81681
G1 X6.134 Y17.355 E6.82713
G1 X4.897 Y17.744 E6.84878
G1 X4.206 Y17.921 E6.86070
G1 X3.312 Y18.104 E6.87594
G1 X3.220 Y17.848 F7800.000
G1 X2.294 Y17.994 E6.89159 F1800.000
G1 X1.584 Y18.070 E6.90352
G1 X1.004 Y18.112 E6.91323
G1 X-0.291 Y18.137 E6.93486
G1 X-1.004 Y18.112 E6.94678
G1 X-2.294 Y17.994 E6.96841
G1 X-2.869 Y17.911 E6.97811
G1 X-4.139 Y17.661 E6.99973
G1 X-4.831 Y17.484 E7.01166
G1 X-6.066 Y17.095 E7.03329
G1 X-6.618 Y16.889 E7.04313
G1 X-7.798 Y16.378 E7.06462
G1 X-8.437 Y16.058 E7.07655
G1 X-9.561 Y15.415 E7.09817
G1 X-10.050 Y15.101 E7.10788
G1 X-11.102 Y14.346 E7.12950
G1 X-11.658 Y13.898 E7.14143
G1 X-12.620 Y13.030 E7.16306
G1 X-13.517 Y12.097 E7.18469
G1 X-14.340 Y11.109 E7.20616
G1 X-14.694 Y10.637 E7.21602
G1 X-15.101 Y10.049 E7.22795
G1 X-15.780 Y8.947 E7.24957
G1 X-16.378 Y7.799 E7.27119
G1 X-16.619 Y7.270 E7.28090
G1 X-16.892 Y6.611 E7.29282
G1 X-17.321 Y5.389 E7.31445
G1 X-17.661 Y4.139 E7.33607
G1 X-17.785 Y3.571 E7.34578
G1 X-17.911 Y2.868 E7.35772
G1 X-18.070 Y1.584 E7.37933
G1 X-18.137 Y0.298 E7.40083
G1 X-18.137 Y-0.291 E7.41066
G1 X-18.112 Y-1.005 E7.42261
G1 X-17.994 Y-2.294 E7.44423
G1 X-17.785 Y-3.571 E7.46584
G1 X-17.661 Y-4.139 E7.47555
G1 X-17.484 Y-4.832 E7.48748
G1 X-17.095 Y-6.066 E7.50910
G1 X-16.892 Y-6.611 E7.51880
G1 X-16.378 Y-7.799 E7.54043
G1 X-16.058 Y-8.437 E7.55235
G1 X-15.415 Y-9.561 E7.57398
G1 X-15.101 Y-10.050 E7.58369
G1 X-14.345 Y-11.102 E7.60531
G1 X-13.517 Y-12.097 E7.62694
G1 X-13.030 Y-12.620 E7.63886
G1 X-12.097 Y-13.517 E7.66049
G1 X-11.658 Y-13.898 E7.67019
G1 X-10.637 Y-14.694 E7.69182
G1 X-10.050 Y-15.101 E7.70374
G1 X-9.554 Y-15.420 E7.71359
G1 X-8.437 Y-16.058 E7.73508
G1 X-7.799 Y-16.378 E7.74700
G1 X-6.611 Y-16.892 E7.76863
G1 X-6.066 Y-17.095 E7.77833
G1 X-4.832 Y-17.484 E7.79995
G1 X-4.139 Y-17.661 E7.81188
G1 X-2.869 Y-17.911 E7.83351
G1 X-2.286 Y-17.995 E7.84335
G1 X-1.005 Y-18.112 E7.86482
G1 X0.298 Y-18.137 E7.88660
G1 X1.584 Y-18.070 E7.90810 F1800.000
G1 X2.294 Y-17.994 E7.92002
G1 X2.878 Y-17.910 E7.92987
G1 X4.139 Y-17.661 E7.95135
G1 X5.389 Y-17.321 E7.97298
G1 X6.066 Y-17.095 E7.98490
G1 X7.270 Y-16.619 E8.00653
G1 X8.437 Y-16.058 E8.02815
G1 X8.947 Y-15.779 E8.03786
G1 X10.050 Y-15.101 E8.05949
G1 X11.102 Y-14.345 E8.08111
G1 X12.097 Y-13.517 E8.10274
G1 X12.619 Y-13.031 E8.11466
G1 X13.517 Y-12.097 E8.13629
G1 X13.898 Y-11.658 E8.14600
G1 X14.694 Y-10.637 E8.16762
G1 X15.415 Y-9.561 E8.18925
G1 X15.779 Y-8.947 E8.20117
G1 X16.378 Y-7.799 E8.22280
G1 X16.892 Y-6.611 E8.24442
G1 X17.095 Y-6.066 E8.25413
G1 X17.484 Y-4.831 E8.27576
G1 X17.785 Y-3.571 E8.29739
G1 X17.911 Y-2.869 E8.30931
G1 X18.070 Y-1.584 E8.33093
G1 X18.137 Y-0.291 E8.35256
G1 X18.112 Y1.004 E8.37419
G1 X18.070 Y1.584 E8.38389
G1 X17.994 Y2.294 E8.39583
G1 X17.785 Y3.571 E8.41744
G1 X17.661 Y4.139 E8.42715
G1 X17.321 Y5.389 E8.44878
G1 X17.095 Y6.066 E8.46070
G1 X16.619 Y7.270 E8.48232
G1 X16.058 Y8.437 E8.50395
G1 X15.779 Y8.947 E8.51366
G1 X15.101 Y10.050 E8.53529
G1 X14.345 Y11.102 E8.55691
G1 X13.898 Y11.658 E8.56883
G1 X13.031 Y12.619 E8.59046
G1 X12.097 Y13.517 E8.61209
G1 X11.658 Y13.898 E8.62179
G1 X10.637 Y14.694 E8.64342
G1 X9.561 Y15.415 E8.66505
G1 X8.947 Y15.779 E8.67697
G1 X7.799 Y16.378 E8.69860
G1 X6.611 Y16.892 E8.72022
G1 X6.049 Y17.101 E8.73022
G1 X4.831 Y17.484 E8.75156
G1 X4.139 Y17.661 E8.76348
G1 X3.264 Y17.840 E8.77839
G1 X3.173 Y17.584 F7800.000
G1 X2.266 Y17.728 E8.79373 F1800.000
G1 X1.555 Y17.804 E8.80566
G1 X0.994 Y17.844 E8.81505
G1 X-0.281 Y17.870 E8.83636
G1 X-0.994 Y17.844 E8.84828
G1 X-2.265 Y17.728 E8.86959
G1 X-2.821 Y17.648 E8.87898
G1 X-4.073 Y17.402 E8.90028
G1 X-4.765 Y17.225 E8.91221
G1 X-5.981 Y16.841 E8.93351
G1 X-6.515 Y16.642 E8.94303
G1 X-7.679 Y16.138 E8.96420
G1 X-8.317 Y15.819 E8.97613
G1 X-9.425 Y15.185 E8.99744
G1 X-9.898 Y14.881 E9.00683
G1 X-10.934 Y14.137 E9.02813
G1 X-11.490 Y13.689 E9.04006
G1 X-12.437 Y12.834 E9.06136
G1 X-13.321 Y11.914 E9.08268
G1 X-14.131 Y10.941 E9.10383
G1 X-14.474 Y10.484 E9.11337
G1 X-14.881 Y9.897 E9.12530
G1 X-15.549 Y8.811 E9.14660
G1 X-16.138 Y7.679 E9.16790
G1 X-16.372 Y7.168 E9.17729
G1 X-16.645 Y6.508 E9.18921
G1 X-17.067 Y5.304 E9.21052
G1 X-17.402 Y4.073 E9.23183
G1 X-17.521 Y3.524 E9.24122
G1 X-17.648 Y2.820 E9.25315
G1 X-17.804 Y1.555 E9.27444
G1 X-17.869 Y0.290 E9.29560
G1 X-17.870 Y-0.281 E9.30514
G1 X-17.844 Y-0.996 E9.31709
G1 X-17.728 Y-2.266 E9.33839
G1 X-17.521 Y-3.524 E9.35968
G1 X-17.402 Y-4.073 E9.36907
G1 X-17.225 Y-4.766 E9.38100
G1 X-16.841 Y-5.981 E9.40229
G1 X-16.645 Y-6.508 E9.41168
G1 X-16.138 Y-7.679 E9.43299
G1 X-15.818 Y-8.317 E9.44491
G1 X-15.185 Y-9.425 E9.46622
G1 X-14.881 Y-9.898 E9.47561
G1 X-14.137 Y-10.934 E9.49692
G1 X-13.321 Y-11.915 E9.51822
G1 X-12.834 Y-12.437 E9.53015
G1 X-11.915 Y-13.321 E9.55145
G1 X-11.490 Y-13.689 E9.56084
G1 X-10.484 Y-14.474 E9.58215
G1 X-9.898 Y-14.881 E9.59407
G1 X-9.417 Y-15.189 E9.60360
G1 X-8.317 Y-15.818 E9.62476
G1 X-7.679 Y-16.138 E9.63669
G1 X-6.508 Y-16.645 E9.65799
G1 X-5.981 Y-16.841 E9.66738
G1 X-4.766 Y-17.225 E9.68868
G1 X-4.073 Y-17.402 E9.70061
G1 X-2.821 Y-17.648 E9.72192
G1 X-2.257 Y-17.729 E9.73144
G1 X-0.996 Y-17.844 E9.75259
G1 X0.289 Y-17.869 E9.77405
G1 X1.555 Y-17.804 E9.79523 F1800.000
G1 X2.265 Y-17.728 E9.80715
G1 X2.830 Y-17.646 E9.81669
G1 X4.073 Y-17.402 E9.83785
G1 X5.304 Y-17.067 E9.85915
G1 X5.981 Y-16.841 E9.87108
G1 X7.168 Y-16.372 E9.89238
G1 X8.317 Y-15.819 E9.91369
G1 X8.811 Y-15.549 E9.92308
G1 X9.897 Y-14.881 E9.94438
G1 X10.934 Y-14.137 E9.96569
G1 X11.914 Y-13.321 E9.98700
G1 X12.437 Y-12.834 E9.99892
G1 X13.321 Y-11.915 E10.02023
G1 X13.689 Y-11.490 E10.02962
G1 X14.474 Y-10.484 E10.05093
G1 X15.185 Y-9.425 E10.07223
